Newaita-dark/apps/64/com.github.torikulhabib.nino.svg

<svg height="64" viewBox="0 0 64 64" width="64" xmlns="http://www.w3.org/2000/svg" xmlns:xlink="http://www.w3.org/1999/xlink"><linearGradient id="a" gradientTransform="matrix(.0166683 0 0 .125012 15.611911 26.87757)" gradientUnits="userSpaceOnUse" x1="254" x2="254" y1="233.5" y2="254.666672"><stop offset="0" stop-opacity=".27451"/><stop offset="1" stop-opacity="0"/></linearGradient><linearGradient id="b"><stop offset="0" stop-opacity=".313726"/><stop offset=".222222" stop-opacity=".27451"/><stop offset="1" stop-opacity="0"/></linearGradient><radialGradient id="c" cx="450.908936" cy="189.579361" gradientTransform="matrix(.00000035 -.156265 -.281277 -.0000002 75.154351 127.190665)" gradientUnits="userSpaceOnUse" r="21.166656" xlink:href="#b"/><radialGradient id="d" cx="450.908936" cy="189.579361" gradientTransform="matrix(-.00000035 .156265 .281277 .0000002 -35.463065 -15.054958)" gradientUnits="userSpaceOnUse" r="21.166656" xlink:href="#b"/><radialGradient id="e" cx="450.908936" cy="189.579361" gradientTransform="matrix(-.00000035 -.156265 .281277 -.0000002 -35.463065 127.190665)" gradientUnits="userSpaceOnUse" r="21.166656" xlink:href="#b"/><radialGradient id="f" cx="450.908936" cy="189.579361" gradientTransform="matrix(.00000035 .156265 -.281277 .0000002 75.154347 -15.054959)" gradientUnits="userSpaceOnUse" r="21.166656" xlink:href="#b"/><linearGradient id="g" gradientUnits="userSpaceOnUse" x1="19.845655" x2="19.845655" y1="56.067868" y2="5.79220799994"><stop offset="0" stop-color="#66bb6a"/><stop offset="1" stop-color="#81c784"/></linearGradient><linearGradient id="h" gradientUnits="userSpaceOnUse" x1="43.660441" x2="43.660441" y1="56.067868" y2="5.79221000013"><stop offset="0" stop-color="#f44336"/><stop offset="1" stop-color="#ef5350"/></linearGradient><radialGradient id="i" cx="450.908936" cy="189.579361" gradientTransform="matrix(.00000026 -.156265 -.210958 -.0000002 83.157378 127.190665)" gradientUnits="userSpaceOnUse" r="21.166656" xlink:href="#b"/><radialGradient id="j" cx="450.908936" cy="189.579361" gradientTransform="matrix(-.00000026 .156265 .210958 .0000002 4.163461 -15.054958)" gradientUnits="userSpaceOnUse" r="21.166656" xlink:href="#b"/><radialGradient id="k" cx="450.908936" cy="189.579361" gradientTransform="matrix(-.00000026 -.156265 .210958 -.0000002 4.163461 127.190665)" gradientUnits="userSpaceOnUse" r="21.166656" xlink:href="#b"/><radialGradient id="l" cx="450.908936" cy="189.579361" gradientTransform="matrix(.00000026 .156265 -.210958 .0000002 83.157375 -15.054959)" gradientUnits="userSpaceOnUse" r="21.166656" xlink:href="#b"/><path d="m17.199219 55.871094h5.292969v2.941406h-5.292969zm0 0" fill="url(#a)"/><path d="m22.492188 56.066406h5.292968v-2.644531h-5.292968zm0 0" fill="url(#c)"/><path d="m17.199219 56.066406h-5.292969v2.648438h5.292969zm0 0" fill="url(#d)"/><path d="m17.199219 56.066406h-5.292969v-2.644531h5.292969zm0 0" fill="url(#e)"/><path d="m22.492188 56.066406h5.292968v2.648438h-5.292968zm0 0" fill="url(#f)"/><path d="m19.753906 5.804688c-.832031.03125-1.601562.449218-2.074218 1.132812l-11.90625 17.203125c-1.210938 1.746094.039062 4.128906 2.164062 4.128906h5.304688v25.152344c0 1.453125 1.179687 2.632813 2.632812 2.632813h7.941406c1.453125 0 2.632813-1.179688 2.632813-2.632813v-25.152344h5.304687c2.125 0 3.375-2.382812 2.164063-4.128906l-11.90625-17.203125c-.511719-.734375-1.363281-1.164062-2.257813-1.132812zm0 0" fill="url(#g)"/><path d="m43.582031 56.054688c-.832031-.03125-1.601562-.449219-2.074219-1.132813l-11.90625-17.199219c-1.210937-1.746094.039063-4.132812 2.164063-4.132812h5.304687v-25.152344c0-1.453125 1.179688-2.632812 2.632813-2.632812h7.9375c1.457031 0 2.636719 1.179687 2.636719 2.632812v25.152344h5.304687c2.121094 0 3.371094 2.386718 2.164063 4.132812l-11.90625 17.199219c-.511719.738281-1.363282 1.164063-2.257813 1.132813zm0 0" fill="url(#h)"/><path d="m19.835938 5.804688c-.027344 0-.054688 0-.082032 0-.832031.03125-1.601562.449218-2.074218 1.132812l-11.90625 17.203125c-.433594.621094-.550782 1.328125-.425782 1.980469.066406-.34375.203125-.683594.425782-1.003906l11.90625-17.199219c.472656-.683594 1.242187-1.105469 2.074218-1.132813.894532-.03125 1.746094.394532 2.257813 1.132813l11.90625 17.199219c.222656.320312.359375.660156.425781 1.003906.125-.652344.007812-1.359375-.425781-1.980469l-11.90625-17.203125c-.496094-.710938-1.308594-1.136719-2.175781-1.132812zm0 0" fill="#fff" fill-opacity=".392157"/><path d="m39.703125 5.804688c-1.453125 0-2.632813 1.179687-2.632813 2.632812v.980469c0-1.457031 1.179688-2.636719 2.632813-2.636719h7.9375c1.457031 0 2.636719 1.179688 2.636719 2.636719v-.980469c0-1.453125-1.179688-2.632812-2.636719-2.632812zm-7.9375 27.785156c-1.734375 0-2.886719 1.59375-2.589844 3.128906.222657-1.167969 1.226563-2.152344 2.589844-2.152344h5.304687v-.976562zm18.511719 0v.976562h5.304687c1.363281 0 2.367188.984375 2.589844 2.152344.296875-1.535156-.855469-3.128906-2.589844-3.128906zm0 0" fill="#fff" fill-opacity=".313726"/><path d="m5.382812 24.976562c-.414062 1.585938.757813 3.292969 2.554688 3.292969h5.304688v-1.308593h-5.304688c-1.296875 0-2.269531-.890626-2.554688-1.984376zm28.925782 0c-.285156 1.09375-1.257813 1.984376-2.554688 1.984376h-5.304687v1.308593h5.304687c1.796875 0 2.96875-1.707031 2.554688-3.292969zm-21.066406 27.136719v1.308594c0 1.453125 1.179687 2.632813 2.632812 2.632813h7.941406c1.453125 0 2.632813-1.179688 2.632813-2.632813v-1.308594c0 1.453125-1.179688 2.632813-2.632813 2.632813h-7.941406c-1.453125 0-2.632812-1.179688-2.632812-2.632813zm0 0" fill-opacity=".235294"/><path d="m29.210938 35.574219c-.179688.695312-.082032 1.46875.390624 2.148437l11.90625 17.199219c.472657.683594 1.242188 1.101563 2.074219 1.132813.894531.03125 1.746094-.394532 2.257813-1.132813l11.90625-17.199219c.46875-.679687.566406-1.453125.386718-2.148437-.074218.285156-.203124.570312-.386718.839843l-11.90625 17.199219c-.511719.734375-1.363282 1.164063-2.257813 1.132813-.832031-.03125-1.601562-.449219-2.074219-1.132813l-11.90625-17.199219c-.1875-.269531-.3125-.554687-.390624-.839843zm0 0" fill-opacity=".235294"/><path d="m158.01616-168.566934c-6.655614.249976-12.811276 3.593407-16.592165 9.061635l-95.240905 137.611858c-9.686575 13.967416.31247 33.028096 17.310847 33.028096h42.433447v201.199537c0 11.62389 9.436599 21.060488 21.060489 21.060488h63.525184c11.62389 0 21.060489-9.436598 21.060489-21.060488v-201.199537h42.433448c16.998376 0 26.997421-19.06068 17.310846-33.028096l-95.240905-137.611858c-4.093359-5.874439-10.905208-9.311611-18.060775-9.061635zm0 0" fill="none" stroke="#212121" stroke-linecap="round" stroke-linejoin="round" stroke-width="3" transform="matrix(.125012 0 0 .125012 0 26.877566)"/><path d="m348.622958 233.39468c-6.655614-.249976-12.811276-3.593406-16.592165-9.061634l-95.240905-137.580612c-9.686575-13.967416.31247-33.059343 17.310847-33.059343h42.433447v-201.199536c0-11.62389 9.436599-21.060489 21.060489-21.060489h63.493937c11.655137 0 21.091736 9.436599 21.091736 21.060489v201.199536h42.433448c16.967129 0 26.966174 19.091927 17.310846 33.059343l-95.240905 137.580612c-4.093359 5.905686-10.905208 9.311611-18.060775 9.061634zm0 0" fill="none" stroke="#212121" stroke-linecap="round" stroke-linejoin="round" stroke-width="3" transform="matrix(.125012 0 0 .125012 0 26.877566)"/><path d="m43.660156 56.066406h3.96875v-2.644531h-3.96875zm0 0" fill="url(#i)"/><path d="m43.660156 56.066406h-3.96875v2.648438h3.96875zm0 0" fill="url(#j)"/><path d="m43.660156 56.066406h-3.96875v-2.644531h3.96875zm0 0" fill="url(#k)"/><path d="m43.660156 56.066406h3.96875v2.648438h-3.96875zm0 0" fill="url(#l)"/></svg>

<?xml version="1.0" encoding="UTF-8"?>
<svg xmlns="http://www.w3.org/2000/svg" xmlns:xlink="http://www.w3.org/1999/xlink" width="64px" height="64px" viewBox="0 0 64 64" version="1.1">
<defs>
<linearGradient id="linear0" gradientUnits="userSpaceOnUse" x1="254" y1="233.5" x2="254" y2="254.666672" gradientTransform="matrix(0.0166683,0,0,0.125012,15.611911,26.87757)">
<stop offset="0" style="stop-color:rgb(0%,0%,0%);stop-opacity:0.27451;"/>
<stop offset="1" style="stop-color:rgb(0%,0%,0%);stop-opacity:0;"/>
</linearGradient>
<radialGradient id="radial0" gradientUnits="userSpaceOnUse" cx="450.908936" cy="189.579361" fx="450.908936" fy="189.579361" r="21.166656" gradientTransform="matrix(0.000000348341,-0.156265,-0.281277,-0.000000203077,75.154351,127.190665)">
<stop offset="0" style="stop-color:rgb(0%,0%,0%);stop-opacity:0.313726;"/>
<stop offset="0.222222" style="stop-color:rgb(0%,0%,0%);stop-opacity:0.27451;"/>
<stop offset="1" style="stop-color:rgb(0%,0%,0%);stop-opacity:0;"/>
</radialGradient>
<radialGradient id="radial1" gradientUnits="userSpaceOnUse" cx="450.908936" cy="189.579361" fx="450.908936" fy="189.579361" r="21.166656" gradientTransform="matrix(-0.000000348341,0.156265,0.281277,0.000000203077,-35.463065,-15.054958)">
<stop offset="0" style="stop-color:rgb(0%,0%,0%);stop-opacity:0.313726;"/>
<stop offset="0.222222" style="stop-color:rgb(0%,0%,0%);stop-opacity:0.27451;"/>
<stop offset="1" style="stop-color:rgb(0%,0%,0%);stop-opacity:0;"/>
</radialGradient>
<radialGradient id="radial2" gradientUnits="userSpaceOnUse" cx="450.908936" cy="189.579361" fx="450.908936" fy="189.579361" r="21.166656" gradientTransform="matrix(-0.000000348341,-0.156265,0.281277,-0.000000203077,-35.463065,127.190665)">
<stop offset="0" style="stop-color:rgb(0%,0%,0%);stop-opacity:0.313726;"/>
<stop offset="0.222222" style="stop-color:rgb(0%,0%,0%);stop-opacity:0.27451;"/>
<stop offset="1" style="stop-color:rgb(0%,0%,0%);stop-opacity:0;"/>
</radialGradient>
<radialGradient id="radial3" gradientUnits="userSpaceOnUse" cx="450.908936" cy="189.579361" fx="450.908936" fy="189.579361" r="21.166656" gradientTransform="matrix(0.000000348341,0.156265,-0.281277,0.000000203077,75.154347,-15.054959)">
<stop offset="0" style="stop-color:rgb(0%,0%,0%);stop-opacity:0.313726;"/>
<stop offset="0.222222" style="stop-color:rgb(0%,0%,0%);stop-opacity:0.27451;"/>
<stop offset="1" style="stop-color:rgb(0%,0%,0%);stop-opacity:0;"/>
</radialGradient>
<linearGradient id="linear1" gradientUnits="userSpaceOnUse" x1="158.75" y1="233.5" x2="158.75" y2="-168.666672" gradientTransform="matrix(0.125012,0,0,0.125012,0,26.877566)">
<stop offset="0" style="stop-color:rgb(40.000001%,73.333335%,41.568628%);stop-opacity:1;"/>
<stop offset="1" style="stop-color:rgb(50.588238%,78.039217%,51.764709%);stop-opacity:1;"/>
</linearGradient>
<linearGradient id="linear2" gradientUnits="userSpaceOnUse" x1="349.25" y1="233.5" x2="349.25" y2="-168.666656" gradientTransform="matrix(0.125012,0,0,0.125012,0,26.877566)">
<stop offset="0" style="stop-color:rgb(95.686275%,26.274511%,21.176471%);stop-opacity:1;"/>
<stop offset="1" style="stop-color:rgb(93.725491%,32.549021%,31.37255%);stop-opacity:1;"/>
</linearGradient>
<radialGradient id="radial4" gradientUnits="userSpaceOnUse" cx="450.908936" cy="189.579361" fx="450.908936" fy="189.579361" r="21.166656" gradientTransform="matrix(0.000000261256,-0.156265,-0.210958,-0.000000203077,83.157378,127.190665)">
<stop offset="0" style="stop-color:rgb(0%,0%,0%);stop-opacity:0.313726;"/>
<stop offset="0.222222" style="stop-color:rgb(0%,0%,0%);stop-opacity:0.27451;"/>
<stop offset="1" style="stop-color:rgb(0%,0%,0%);stop-opacity:0;"/>
</radialGradient>
<radialGradient id="radial5" gradientUnits="userSpaceOnUse" cx="450.908936" cy="189.579361" fx="450.908936" fy="189.579361" r="21.166656" gradientTransform="matrix(-0.000000261256,0.156265,0.210958,0.000000203077,4.163461,-15.054958)">
<stop offset="0" style="stop-color:rgb(0%,0%,0%);stop-opacity:0.313726;"/>
<stop offset="0.222222" style="stop-color:rgb(0%,0%,0%);stop-opacity:0.27451;"/>
<stop offset="1" style="stop-color:rgb(0%,0%,0%);stop-opacity:0;"/>
</radialGradient>
<radialGradient id="radial6" gradientUnits="userSpaceOnUse" cx="450.908936" cy="189.579361" fx="450.908936" fy="189.579361" r="21.166656" gradientTransform="matrix(-0.000000261256,-0.156265,0.210958,-0.000000203077,4.163461,127.190665)">
<stop offset="0" style="stop-color:rgb(0%,0%,0%);stop-opacity:0.313726;"/>
<stop offset="0.222222" style="stop-color:rgb(0%,0%,0%);stop-opacity:0.27451;"/>
<stop offset="1" style="stop-color:rgb(0%,0%,0%);stop-opacity:0;"/>
</radialGradient>
<radialGradient id="radial7" gradientUnits="userSpaceOnUse" cx="450.908936" cy="189.579361" fx="450.908936" fy="189.579361" r="21.166656" gradientTransform="matrix(0.000000261256,0.156265,-0.210958,0.000000203077,83.157375,-15.054959)">
<stop offset="0" style="stop-color:rgb(0%,0%,0%);stop-opacity:0.313726;"/>
<stop offset="0.222222" style="stop-color:rgb(0%,0%,0%);stop-opacity:0.27451;"/>
<stop offset="1" style="stop-color:rgb(0%,0%,0%);stop-opacity:0;"/>
</radialGradient>
</defs>
<g id="surface1">
<path style=" stroke:none;fill-rule:nonzero;fill:url(#linear0);" d="M 17.199219 55.871094 L 22.492188 55.871094 L 22.492188 58.8125 L 17.199219 58.8125 Z M 17.199219 55.871094 "/>
<path style=" stroke:none;fill-rule:nonzero;fill:url(#radial0);" d="M 22.492188 56.066406 L 27.785156 56.066406 L 27.785156 53.421875 L 22.492188 53.421875 Z M 22.492188 56.066406 "/>
<path style=" stroke:none;fill-rule:nonzero;fill:url(#radial1);" d="M 17.199219 56.066406 L 11.90625 56.066406 L 11.90625 58.714844 L 17.199219 58.714844 Z M 17.199219 56.066406 "/>
<path style=" stroke:none;fill-rule:nonzero;fill:url(#radial2);" d="M 17.199219 56.066406 L 11.90625 56.066406 L 11.90625 53.421875 L 17.199219 53.421875 Z M 17.199219 56.066406 "/>
<path style=" stroke:none;fill-rule:nonzero;fill:url(#radial3);" d="M 22.492188 56.066406 L 27.785156 56.066406 L 27.785156 58.714844 L 22.492188 58.714844 Z M 22.492188 56.066406 "/>
<path style=" stroke:none;fill-rule:nonzero;fill:url(#linear1);" d="M 19.753906 5.804688 C 18.921875 5.835938 18.152344 6.253906 17.679688 6.9375 L 5.773438 24.140625 C 4.5625 25.886719 5.8125 28.269531 7.9375 28.269531 L 13.242188 28.269531 L 13.242188 53.421875 C 13.242188 54.875 14.421875 56.054688 15.875 56.054688 L 23.816406 56.054688 C 25.269531 56.054688 26.449219 54.875 26.449219 53.421875 L 26.449219 28.269531 L 31.753906 28.269531 C 33.878906 28.269531 35.128906 25.886719 33.917969 24.140625 L 22.011719 6.9375 C 21.5 6.203125 20.648438 5.773438 19.753906 5.804688 Z M 19.753906 5.804688 "/>
<path style=" stroke:none;fill-rule:nonzero;fill:url(#linear2);" d="M 43.582031 56.054688 C 42.75 56.023438 41.980469 55.605469 41.507812 54.921875 L 29.601562 37.722656 C 28.390625 35.976562 29.640625 33.589844 31.765625 33.589844 L 37.070312 33.589844 L 37.070312 8.4375 C 37.070312 6.984375 38.25 5.804688 39.703125 5.804688 L 47.640625 5.804688 C 49.097656 5.804688 50.277344 6.984375 50.277344 8.4375 L 50.277344 33.589844 L 55.582031 33.589844 C 57.703125 33.589844 58.953125 35.976562 57.746094 37.722656 L 45.839844 54.921875 C 45.328125 55.660156 44.476562 56.085938 43.582031 56.054688 Z M 43.582031 56.054688 "/>
<path style=" stroke:none;fill-rule:nonzero;fill:rgb(100%,100%,100%);fill-opacity:0.392157;" d="M 19.835938 5.804688 C 19.808594 5.804688 19.78125 5.804688 19.753906 5.804688 C 18.921875 5.835938 18.152344 6.253906 17.679688 6.9375 L 5.773438 24.140625 C 5.339844 24.761719 5.222656 25.46875 5.347656 26.121094 C 5.414062 25.777344 5.550781 25.4375 5.773438 25.117188 L 17.679688 7.917969 C 18.152344 7.234375 18.921875 6.8125 19.753906 6.785156 C 20.648438 6.753906 21.5 7.179688 22.011719 7.917969 L 33.917969 25.117188 C 34.140625 25.4375 34.277344 25.777344 34.34375 26.121094 C 34.46875 25.46875 34.351562 24.761719 33.917969 24.140625 L 22.011719 6.9375 C 21.515625 6.226562 20.703125 5.800781 19.835938 5.804688 Z M 19.835938 5.804688 "/>
<path style=" stroke:none;fill-rule:nonzero;fill:rgb(100%,100%,100%);fill-opacity:0.313726;" d="M 39.703125 5.804688 C 38.25 5.804688 37.070312 6.984375 37.070312 8.4375 L 37.070312 9.417969 C 37.070312 7.960938 38.25 6.78125 39.703125 6.78125 L 47.640625 6.78125 C 49.097656 6.78125 50.277344 7.960938 50.277344 9.417969 L 50.277344 8.4375 C 50.277344 6.984375 49.097656 5.804688 47.640625 5.804688 Z M 31.765625 33.589844 C 30.03125 33.589844 28.878906 35.183594 29.175781 36.71875 C 29.398438 35.550781 30.402344 34.566406 31.765625 34.566406 L 37.070312 34.566406 L 37.070312 33.589844 Z M 50.277344 33.589844 L 50.277344 34.566406 L 55.582031 34.566406 C 56.945312 34.566406 57.949219 35.550781 58.171875 36.71875 C 58.46875 35.183594 57.316406 33.589844 55.582031 33.589844 Z M 50.277344 33.589844 "/>
<path style=" stroke:none;fill-rule:nonzero;fill:rgb(0%,0%,0%);fill-opacity:0.235294;" d="M 5.382812 24.976562 C 4.96875 26.5625 6.140625 28.269531 7.9375 28.269531 L 13.242188 28.269531 L 13.242188 26.960938 L 7.9375 26.960938 C 6.640625 26.960938 5.667969 26.070312 5.382812 24.976562 Z M 34.308594 24.976562 C 34.023438 26.070312 33.050781 26.960938 31.753906 26.960938 L 26.449219 26.960938 L 26.449219 28.269531 L 31.753906 28.269531 C 33.550781 28.269531 34.722656 26.5625 34.308594 24.976562 Z M 13.242188 52.113281 L 13.242188 53.421875 C 13.242188 54.875 14.421875 56.054688 15.875 56.054688 L 23.816406 56.054688 C 25.269531 56.054688 26.449219 54.875 26.449219 53.421875 L 26.449219 52.113281 C 26.449219 53.566406 25.269531 54.746094 23.816406 54.746094 L 15.875 54.746094 C 14.421875 54.746094 13.242188 53.566406 13.242188 52.113281 Z M 13.242188 52.113281 "/>
<path style=" stroke:none;fill-rule:nonzero;fill:rgb(0%,0%,0%);fill-opacity:0.235294;" d="M 29.210938 35.574219 C 29.03125 36.269531 29.128906 37.042969 29.601562 37.722656 L 41.507812 54.921875 C 41.980469 55.605469 42.75 56.023438 43.582031 56.054688 C 44.476562 56.085938 45.328125 55.660156 45.839844 54.921875 L 57.746094 37.722656 C 58.214844 37.042969 58.3125 36.269531 58.132812 35.574219 C 58.058594 35.859375 57.929688 36.144531 57.746094 36.414062 L 45.839844 53.613281 C 45.328125 54.347656 44.476562 54.777344 43.582031 54.746094 C 42.75 54.714844 41.980469 54.296875 41.507812 53.613281 L 29.601562 36.414062 C 29.414062 36.144531 29.289062 35.859375 29.210938 35.574219 Z M 29.210938 35.574219 "/>
<path style="fill:none;stroke-width:3;stroke-linecap:round;stroke-linejoin:round;stroke:rgb(12.941177%,12.941177%,12.941177%);stroke-opacity:1;stroke-miterlimit:4;" d="M 158.01616 -168.566934 C 151.360546 -168.316958 145.204884 -164.973527 141.423995 -159.505299 L 46.18309 -21.893441 C 36.496515 -7.926025 46.49556 11.134655 63.493937 11.134655 L 105.927384 11.134655 L 105.927384 212.334192 C 105.927384 223.958082 115.363983 233.39468 126.987873 233.39468 L 190.513057 233.39468 C 202.136947 233.39468 211.573546 223.958082 211.573546 212.334192 L 211.573546 11.134655 L 254.006994 11.134655 C 271.00537 11.134655 281.004415 -7.926025 271.31784 -21.893441 L 176.076935 -159.505299 C 171.983576 -165.379738 165.171727 -168.81691 158.01616 -168.566934 Z M 158.01616 -168.566934 " transform="matrix(0.125012,0,0,0.125012,0,26.877566)"/>
<path style="fill:none;stroke-width:3;stroke-linecap:round;stroke-linejoin:round;stroke:rgb(12.941177%,12.941177%,12.941177%);stroke-opacity:1;stroke-miterlimit:4;" d="M 348.622958 233.39468 C 341.967344 233.144704 335.811682 229.801274 332.030793 224.333046 L 236.789888 86.752434 C 227.103313 72.785018 237.102358 53.693091 254.100735 53.693091 L 296.534182 53.693091 L 296.534182 -147.506445 C 296.534182 -159.130335 305.970781 -168.566934 317.594671 -168.566934 L 381.088608 -168.566934 C 392.743745 -168.566934 402.180344 -159.130335 402.180344 -147.506445 L 402.180344 53.693091 L 444.613792 53.693091 C 461.580921 53.693091 471.579966 72.785018 461.924638 86.752434 L 366.683733 224.333046 C 362.590374 230.238732 355.778525 233.644657 348.622958 233.39468 Z M 348.622958 233.39468 " transform="matrix(0.125012,0,0,0.125012,0,26.877566)"/>
<path style=" stroke:none;fill-rule:nonzero;fill:url(#radial4);" d="M 43.660156 56.066406 L 47.628906 56.066406 L 47.628906 53.421875 L 43.660156 53.421875 Z M 43.660156 56.066406 "/>
<path style=" stroke:none;fill-rule:nonzero;fill:url(#radial5);" d="M 43.660156 56.066406 L 39.691406 56.066406 L 39.691406 58.714844 L 43.660156 58.714844 Z M 43.660156 56.066406 "/>
<path style=" stroke:none;fill-rule:nonzero;fill:url(#radial6);" d="M 43.660156 56.066406 L 39.691406 56.066406 L 39.691406 53.421875 L 43.660156 53.421875 Z M 43.660156 56.066406 "/>
<path style=" stroke:none;fill-rule:nonzero;fill:url(#radial7);" d="M 43.660156 56.066406 L 47.628906 56.066406 L 47.628906 58.714844 L 43.660156 58.714844 Z M 43.660156 56.066406 "/>
</g>
</svg>
